X:1
T:the Rhine Hornpipe
R:Hornpipe
S:Howe – 1000 Jigs and Reels (c. 1867)
S:Ralph Page - Northern Junket (1981) v.13 #11 p.27, as April's Hornpipe
Z:AK/Fiddler’s Companion
M:2/4
L:1/16
K:Bb
(FD) |\
"Bb"B,DFB dBFD | "F7"CEAc ecAF | "Bb"B,DFB DFBd | "C(m)"(3cdc (3BAG "F7"(3FGF (3EDC |
"Bb"B,DFB dBFD | "F7"CEAc ecAF | "Bb"BABd "F7"fecA | "Bb"B2b2B2 :|
|: (3fga |\
"Bb"bfdf gfdf | "Bb"bfdf gfdf | "Eb"edgf edcB | "F7"AcBG Fedc |
"Bb"BFGE "F7"DFGA | "Bb"BFGE "F7"E2f2 | "Gm"{a2}gfga "F7"bfge | "Bb"d2B2B2 :|
